X: 19722
T: Jenny Nettles
R: reel
M: 4/4
K: Adorian
AB|:c2B2A2a2|efge dBGB|cdBc A2a2|gefd e2 AB:|
cdeA cdeA|B/c/dcA BGdB|cdeA cdea|gefd e2 AB|
cdef gage|gage dcB/A/G|B/c/def gagf|eaa^g a2A2|
|:eceB eAAB/c/|dBdA dGGg|eceB eAAB/c/|dB[gG]B A3c:|

